X:1
T:Little Ones Like Me!
T:I. L. Andrews
T:Little Ones Like Me!
T:Public Domain
T:Public Domain
C:I. L. Andrews
Z:Public Domain
%%score ( 1 2 ) ( 3 4 )
L:1/8
M:6/8
K:F
V:1 treble 
V:2 treble 
V:3 bass 
V:4 bass 
V:1
"^Gently" [Fc]2 [FA] ([FA][EG])[_EF] | [DF]2 [B,D] [A,C]2 z | [CF]2 [CF] (FE)[CF] | %3
w: 1.~Lov- ing Sav- * ior,|meek and mild,|Thou wilt bless * a|
w: 2.~Thou art near * me|all the day,|When I stu- * dy,|
w: 3.~Sav- ior, let * Thy|grace di- vine,|Dwell with- in * this|
 (A>G)[FG] [EG]2 z | [FA]2 [FA] ([Ac]>[GB])[FA] | [Fd]2 [Fd] [Fc]2 z | (cA)F [EG]2 [EA] | %7
w: tle * child; And|sin keep un- * de-|filed, Lit- tle|ones * like me. *|
w: or * play; Thou|ne- ver turn * a-|way, Lit- tle|ones * like me. Lit-|
w: of * mine; Thou|keep for- ev- * er|Thine, Lit- tle|ones * like me. *|
 F3- F2 z ||"^Refrain" [EG]2 [EG] ([EG][DF])[EG] | [FA]3- [FA]2 z | [Fc]2 [CA] (FG)[FA] | %11
w: ||||
w: like *|Lit- tle ones * like|me, *|Thou wilt keep * for-|
w: ||||
 [EG]3- [EG]2 z | [FA]2 [FA] ([Ac]>[GB])[FA] | [Fd]2 [Fd] [Fc]2 z | (cA)F [EG]2 [EA] | F3- F3 |] %16
w: |||||
w: er *|Thine, Lit- tle * ones|like me. *|||
w: |||||
V:2
 x6 | x6 | x3 C2 x | F2 x4 | x6 | x6 | F2 F x3 | F3- F2 x || x6 | x6 | x3 C2 x | x6 | x6 | x6 | %14
w: ||lit-|from|||||||||||
w: ||work,|wilt|||tle ones|me, *|||ev-||||
w: ||heart|wilt|||||||||||
 F2 F x3 | F3- F3 |] %16
w: ||
w: ||
w: ||
V:3
 [F,A,]2 [F,C] [F,C]2 [A,,C] | [B,,B,]2 [D,F,] F,2 z | [F,A,]2 [F,A,] ([F,A,][G,B,])[A,C] | %3
 [G,=B,]2 [G,,G,B,] [C,C]2 z | [F,C]2 [F,C] [F,C]2 [F,C] | [B,,B,]2 [D,B,] [F,A,]2 z | %6
 (A,C)[F,A,] [C,B,]2 [C,C] | [F,A,]3- [F,A,]2 z || [C,C]2 [C,C] [C,C]2 [C,C] | [F,C]3- [F,C]2 z | %10
 [F,A,]2 F, (A,B,)[F,C] | [C,C]3- [C,C]2 z | [F,C]2 [F,C] [F,C]2 [F,C] | %13
 [B,,B,]2 [D,B,] [F,A,]2 z | (A,C)[F,A,] [C,B,]2 [C,C] | [F,A,]3- [F,A,]3 |] %16
V:4
 x6 | x3 F,2 x | x6 | x6 | x6 | x6 | F,2 x4 | x6 || x6 | x6 | x2 F, F,2 x | x6 | x6 | x6 | F,2 x4 | %15
 x6 |] %16

